48x48/apps/deepin-repair-tools.svg

<svg xmlns="http://www.w3.org/2000/svg" width="48" height="48" version="1">
 <rect style="fill:#8f8f8f" width="40" height="40" x="4" y="4" rx="2" ry="2"/>
 <path fill="#fff" style="opacity:0.1" d="m6 4c-1.108 0-2 0.892-2 2v1c0-1.108 0.892-2 2-2h36c1.108 0 2 0.892 2 2v-1c0-1.108-0.892-2-2-2h-36z"/>
 <path opacity=".2" d="m6 45c-1.108 0-2-0.892-2-2v-1c0 1.108 0.892 2 2 2h36c1.108 0 2-0.892 2-2v1c0 1.108-0.892 2-2 2h-36z"/>
 <path style="opacity:0.6;fill:#f4f4f7" d="M 31.316406 14.005859 C 29.330041 14.111504 27.802148 15.829902 27.90625 17.845703 C 27.90785 17.876543 27.911662 17.90689 27.914062 17.9375 C 27.906363 18.146496 27.916749 18.355117 27.943359 18.5625 C 28.014179 19.114928 27.840147 19.67175 27.472656 20.085938 L 25.541016 22.265625 L 17.310547 31.546875 C 17.208812 31.544275 17.131736 31.544175 17.080078 31.546875 C 15.87011 31.611215 14.940379 32.656596 15.003906 33.886719 C 15.067436 35.116841 16.098385 36.06056 17.310547 35.996094 C 18.522706 35.931624 19.450245 34.886372 19.386719 33.65625 C 19.384019 33.6033 19.376691 33.525237 19.363281 33.421875 L 27.570312 24.167969 L 29.525391 21.962891 C 29.892295 21.548735 30.421951 21.314985 30.970703 21.328125 C 31.134157 21.332225 31.298442 21.328217 31.460938 21.310547 C 31.538087 21.31142 31.615237 21.308888 31.693359 21.304688 C 33.314669 21.218457 34.628201 20.057298 35 18.537109 L 32.966797 18.933594 C 31.981057 19.125486 31.027546 18.479395 30.835938 17.492188 L 30.832031 17.474609 C 30.640422 16.487404 31.285744 15.529785 32.271484 15.337891 L 33.984375 15.003906 C 33.292741 14.337169 32.344294 13.951192 31.316406 14.005859 z M 16.869141 32.679688 L 18.042969 32.943359 L 18.386719 34.095703 L 17.558594 34.984375 L 16.386719 34.720703 L 16.041016 33.568359 L 16.869141 32.679688 z"/>
 <path style="opacity:0.2" d="m 25.094771,24.184087 9.411959,9.484782 c 0.640883,0.645843 0.657459,1.721086 0.0486,2.392343 -0.186754,0.175602 -0.64789,0.567982 -0.64789,0.567982 -0.705076,0.573574 -1.757814,0.469047 -2.343927,-0.225714 L 22.951877,26.195498 c -0.09896,-0.117307 -0.158166,-0.258129 -0.178632,-0.403896 -0.258443,-0.327229 -1.259037,-1.550742 -3.324376,-3.600232 -2.439701,-2.420978 -2.856837,-1.199086 -3.307422,-0.796812 -0.450587,0.402273 -0.40495,0.775281 -0.40495,0.775281 -0.03926,0.229544 -0.197333,0.536894 -0.374345,0.685982 L 14.6427,23.461772 c -0.06693,0.03296 -1.318658,-1.313525 -1.715679,-1.759091 -0.341079,-0.382785 -0.885293,-1.149011 -0.885293,-1.149011 -0.06222,-0.08625 -0.05352,-0.217469 0.01716,-0.295593 0,0 0.666494,-0.762377 0.912831,-0.777284 0.722981,-0.04375 1.057648,-0.111888 1.412482,-0.656419 0.354833,-0.544529 0.355122,-0.973374 0.552433,-1.288487 0.131182,-0.209504 1.226323,-1.569569 2.828056,-2.522682 3.07248,-1.828281 5.45624,-1.941254 5.95068,-1.90691 l 2.31291,0.160654 -1.197849,1.190868 c -0.09923,0.03592 -0.261415,0.08576 -0.362097,0.111257 0,0 -1.461945,0.327228 -2.621994,1.177047 -1.160049,0.849819 -1.476114,2.310215 -0.589732,4.027757 0.520045,1.007693 0.859686,1.355531 1.571377,2.168819 0.832243,0.951051 1.570227,1.709811 1.890814,2.0333 0.138347,0.03122 0.269406,0.100702 0.375972,0.20809 z"/>
 <path style="fill:#f4f4f7" d="m 25.094771,23.184087 9.411959,9.484782 c 0.640883,0.645843 0.657459,1.721086 0.0486,2.392343 -0.186754,0.175602 -0.64789,0.567982 -0.64789,0.567982 -0.705076,0.573574 -1.757814,0.469047 -2.343927,-0.225714 L 22.951877,25.195498 c -0.09896,-0.117307 -0.158166,-0.258129 -0.178632,-0.403896 -0.258443,-0.327229 -1.259037,-1.550742 -3.324376,-3.600232 -2.439701,-2.420978 -2.856837,-1.199086 -3.307422,-0.796812 -0.450587,0.402273 -0.40495,0.775281 -0.40495,0.775281 -0.03926,0.229544 -0.197333,0.536894 -0.374345,0.685982 L 14.6427,22.461772 c -0.06693,0.03296 -1.318658,-1.313525 -1.715679,-1.759091 -0.341079,-0.382785 -0.885293,-1.149011 -0.885293,-1.149011 -0.06222,-0.08625 -0.05352,-0.217469 0.01716,-0.295593 0,0 0.666494,-0.762377 0.912831,-0.777284 0.722981,-0.04375 1.057648,-0.111888 1.412482,-0.656419 0.354833,-0.544529 0.355122,-0.973374 0.552433,-1.288487 0.131182,-0.209504 1.226323,-1.569569 2.828056,-2.522682 3.07248,-1.828281 5.45624,-1.941254 5.95068,-1.90691 l 2.31291,0.160654 -1.197849,1.190868 c -0.09923,0.03592 -0.261415,0.08576 -0.362097,0.111257 0,0 -1.461945,0.327228 -2.621994,1.177047 -1.160049,0.849819 -1.476114,2.310215 -0.589732,4.027757 0.520045,1.007693 0.859686,1.355531 1.571377,2.168819 0.832243,0.951051 1.570227,1.709811 1.890814,2.0333 0.138347,0.03122 0.269406,0.100702 0.375972,0.20809 z"/>
</svg>

<svg xmlns="http://www.w3.org/2000/svg" width="48" height="48" version="1"><rect style="fill:#8f8f8f" width="40" height="40" x="4" y="4" rx="2" ry="2"/><path fill="#fff" style="opacity:.1" d="M6 4c-1.108 0-2 .892-2 2v1c0-1.108.892-2 2-2h36c1.108 0 2 .892 2 2V6c0-1.108-.892-2-2-2H6z"/><path opacity=".2" d="M6 45c-1.108 0-2-.892-2-2v-1c0 1.108.892 2 2 2h36c1.108 0 2-.892 2-2v1c0 1.108-.892 2-2 2H6z"/><path style="opacity:.6;fill:#f4f4f7" d="M31.316 14.006c-1.986.106-3.514 1.824-3.41 3.84l.008.091c-.008.21.003.418.03.625a1.93 1.93 0 0 1-.471 1.524l-1.932 2.18-8.23 9.28a3.253 3.253 0 0 0-.23 0c-1.21.065-2.14 1.11-2.077 2.34.063 1.23 1.094 2.175 2.307 2.11 1.212-.064 2.14-1.11 2.076-2.34a3.193 3.193 0 0 0-.024-.234l8.207-9.254 1.955-2.205a1.876 1.876 0 0 1 1.446-.635c.163.004.327 0 .49-.017.077 0 .154-.002.232-.006 1.622-.087 2.935-1.248 3.307-2.768l-2.033.397a1.818 1.818 0 0 1-2.131-1.442l-.004-.017a1.824 1.824 0 0 1 1.44-2.137l1.712-.334a3.557 3.557 0 0 0-2.668-.998zM16.87 32.68l1.174.263.344 1.153-.828.888-1.172-.263-.346-1.153.828-.888z"/><path style="opacity:.2" d="m25.095 24.184 9.412 9.485c.64.646.657 1.721.048 2.392-.186.176-.648.568-.648.568a1.69 1.69 0 0 1-2.343-.226l-8.612-10.208a.796.796 0 0 1-.179-.403c-.258-.328-1.259-1.551-3.324-3.6-2.44-2.422-2.857-1.2-3.308-.797-.45.402-.405.775-.405.775-.039.23-.197.537-.374.686l-.72.606c-.066.033-1.318-1.314-1.715-1.76-.341-.382-.885-1.148-.885-1.148a.244.244 0 0 1 .017-.296s.666-.762.913-.777c.723-.044 1.057-.112 1.412-.657.355-.544.355-.973.553-1.288.13-.21 1.226-1.57 2.828-2.523 3.072-1.828 5.456-1.941 5.95-1.907l2.313.16-1.198 1.192c-.099.036-.261.086-.362.111 0 0-1.462.327-2.622 1.177-1.16.85-1.476 2.31-.59 4.028.52 1.008.86 1.355 1.572 2.169.832.95 1.57 1.71 1.89 2.033.14.031.27.1.377.208z"/><path style="fill:#f4f4f7" d="m25.095 23.184 9.412 9.485c.64.646.657 1.721.048 2.392-.186.176-.648.568-.648.568a1.69 1.69 0 0 1-2.343-.226l-8.612-10.208a.796.796 0 0 1-.179-.403c-.258-.328-1.259-1.551-3.324-3.6-2.44-2.422-2.857-1.2-3.308-.797-.45.402-.405.775-.405.775-.039.23-.197.537-.374.686l-.72.606c-.066.033-1.318-1.314-1.715-1.76-.341-.382-.885-1.148-.885-1.148a.244.244 0 0 1 .017-.296s.666-.762.913-.777c.723-.044 1.057-.112 1.412-.657.355-.544.355-.973.553-1.288.13-.21 1.226-1.57 2.828-2.523 3.072-1.828 5.456-1.941 5.95-1.907l2.313.16-1.198 1.192c-.099.036-.261.086-.362.111 0 0-1.462.327-2.622 1.177-1.16.85-1.476 2.31-.59 4.028.52 1.008.86 1.355 1.572 2.169.832.95 1.57 1.71 1.89 2.033.14.031.27.1.377.208z"/></svg>
